source/img/badges/google-play-badge.svg

<svg width="135" height="40" viewBox="0 0 135 40" fill="none" xmlns="http://www.w3.org/2000/svg">
<path d="M130 0H5C2.23858 0 0 2.23858 0 5V35C0 37.7614 2.23858 40 5 40H130C132.761 40 135 37.7614 135 35V5C135 2.23858 132.761 0 130 0Z" fill="black"/>
<path d="M130 0.800044C131.114 0.801331 132.181 1.24427 132.968 2.03169C133.756 2.81911 134.199 3.8867 134.2 5.00024V35.0002C134.199 36.1138 133.756 37.1814 132.968 37.9688C132.181 38.7562 131.114 39.1991 130 39.2004H5C3.88645 39.1992 2.81888 38.7562 2.0315 37.9688C1.24412 37.1814 0.801231 36.1138 0.8 35.0002V5.00024C0.801212 3.88669 1.24409 2.81909 2.03148 2.03166C2.81886 1.24424 3.88644 0.801309 5 0.800044H130ZM130 0.000244141H5C3.67511 0.00412224 2.40559 0.532152 1.46875 1.46899C0.531908 2.40584 0.0038781 3.67535 0 5.00024L0 35.0002C0.0038781 36.3251 0.531908 37.5947 1.46875 38.5315C2.40559 39.4683 3.67511 39.9964 5 40.0002H130C131.325 39.9964 132.594 39.4683 133.531 38.5315C134.468 37.5947 134.996 36.3251 135 35.0002V5.00024C134.996 3.67535 134.468 2.40584 133.531 1.46899C132.594 0.532152 131.325 0.00412224 130 0.000244141Z" fill="#A6A6A6"/>
<path d="M47.4184 10.2433C47.4366 10.6103 47.3799 10.9771 47.2518 11.3214C47.1237 11.6658 46.9268 11.9804 46.6732 12.2462C46.389 12.541 46.0457 12.7724 45.6659 12.9254C45.2861 13.0784 44.8783 13.1494 44.4691 13.1339C44.0573 13.1376 43.649 13.059 43.268 12.9026C42.8871 12.7462 42.5412 12.5152 42.2508 12.2233C41.9604 11.9313 41.7313 11.5842 41.5769 11.2024C41.4226 10.8207 41.3461 10.4119 41.352 10.0001C41.3462 9.58837 41.4227 9.17959 41.577 8.79781C41.7314 8.41603 41.9605 8.06895 42.2509 7.77695C42.5413 7.48496 42.8871 7.25395 43.268 7.09748C43.649 6.94102 44.0573 6.86226 44.4691 6.86584C44.8925 6.86456 45.3116 6.95016 45.7006 7.11734C46.0619 7.26378 46.3834 7.49348 46.6391 7.78774L46.1117 8.31554C45.9107 8.07899 45.6581 7.89178 45.3733 7.76834C45.0885 7.64491 44.7791 7.58856 44.4691 7.60364C44.157 7.60202 43.8478 7.66341 43.56 7.78412C43.2722 7.90483 43.0118 8.08239 42.7942 8.30615C42.5767 8.52991 42.4065 8.79527 42.2939 9.08635C42.1814 9.37743 42.1287 9.68823 42.1391 10.0001C42.1317 10.4673 42.2631 10.9262 42.5168 11.3186C42.7705 11.711 43.135 12.0192 43.5641 12.2041C43.9932 12.3891 44.4676 12.4425 44.927 12.3575C45.3865 12.2725 45.8104 12.0529 46.1449 11.7267C46.4528 11.395 46.6313 10.9637 46.6478 10.5113H44.4691V9.79064H47.3764C47.4039 9.93998 47.4179 10.0915 47.4184 10.2433Z" fill="white" stroke="white" stroke-width="0.2" stroke-miterlimit="10"/>
<path d="M52.0277 7.7373H49.2953V9.6396H51.7592V10.3604H49.2953V12.2627H52.0277V13H48.5248V7H52.0277V7.7373Z" fill="white" stroke="white" stroke-width="0.2" stroke-miterlimit="10"/>
<path d="M55.2787 13H54.5072V7.7373H52.8314V7H56.9545V7.7373H55.2787V13Z" fill="white" stroke="white" stroke-width="0.2" stroke-miterlimit="10"/>
<path d="M59.9379 13V7H60.7084V13H59.9379Z" fill="white" stroke="white" stroke-width="0.2" stroke-miterlimit="10"/>
<path d="M64.1283 13H63.3568V7.7373H61.6811V7H65.8041V7.7373H64.1283V13Z" fill="white" stroke="white" stroke-width="0.2" stroke-miterlimit="10"/>
<path d="M73.6093 12.2246C73.0253 12.8069 72.2343 13.1338 71.4096 13.1338C70.5849 13.1338 69.7939 12.8069 69.2099 12.2246C68.921 11.932 68.6939 11.5843 68.542 11.2021C68.3902 10.8199 68.3168 10.4111 68.3261 10C68.3168 9.58891 68.3902 9.18011 68.542 8.79795C68.6939 8.41578 68.921 8.06805 69.2099 7.77542C69.4986 7.48669 69.8413 7.25772 70.2186 7.10162C70.5958 6.94552 71.0002 6.86536 71.4085 6.86572C71.8167 6.86609 72.2209 6.94697 72.5979 7.10373C72.9749 7.2605 73.3173 7.49008 73.6054 7.77932C73.8945 8.07118 74.1221 8.41814 74.2746 8.79961C74.4271 9.18107 74.5014 9.58929 74.4931 10C74.5022 10.4111 74.4286 10.8198 74.2768 11.202C74.125 11.5841 73.898 11.9318 73.6093 12.2246ZM69.7792 11.7222C70.2117 12.154 70.7979 12.3965 71.4091 12.3965C72.0203 12.3965 72.6065 12.154 73.039 11.7222C73.2608 11.4951 73.4343 11.2255 73.5489 10.9294C73.6635 10.6334 73.717 10.3173 73.706 10C73.717 9.68278 73.6635 9.36661 73.5489 9.0706C73.4343 8.7746 73.2608 8.5049 73.039 8.27782C72.6065 7.84603 72.0203 7.60351 71.4091 7.60351C70.7979 7.60351 70.2117 7.84603 69.7792 8.27782C69.5577 8.50508 69.3845 8.77483 69.2701 9.07081C69.1556 9.36679 69.1022 9.68287 69.1132 10C69.1022 10.3172 69.1556 10.6333 69.2701 10.9292C69.3845 11.2252 69.5577 11.495 69.7792 11.7222Z" fill="white" stroke="white" stroke-width="0.2" stroke-miterlimit="10"/>
<path d="M75.5751 13V7H76.5136L79.4296 11.6675H79.4628L79.4296 10.5112V7H80.2011V13H79.3964L76.3456 8.1064H76.3124L76.3456 9.2627V13H75.5751Z" fill="white" stroke="white" stroke-width="0.2" stroke-miterlimit="10"/>
<path d="M68.1358 21.7517C67.2953 21.7549 66.4746 22.007 65.7773 22.4763C65.08 22.9456 64.5373 23.611 64.2179 24.3884C63.8984 25.1659 63.8165 26.0205 63.9825 26.8445C64.1484 27.6685 64.5547 28.4248 65.1502 29.018C65.7457 29.6112 66.5035 30.0147 67.3281 30.1775C68.1527 30.3403 69.0071 30.2551 69.7833 29.9327C70.5595 29.6103 71.2228 29.0652 71.6895 28.3661C72.1561 27.667 72.4051 26.8453 72.4051 26.0048C72.4134 25.4426 72.3085 24.8845 72.0966 24.3637C71.8848 23.8429 71.5704 23.37 71.1721 22.9732C70.7737 22.5764 70.2997 22.2638 69.7781 22.0539C69.2564 21.8441 68.698 21.7413 68.1358 21.7517ZM68.1358 28.5825C67.6182 28.6194 67.1014 28.4996 66.6528 28.2387C66.2043 27.9778 65.8446 27.5879 65.6207 27.1198C65.3968 26.6516 65.3191 26.1269 65.3976 25.6139C65.4761 25.101 65.7072 24.6235 66.0608 24.2438C66.4145 23.864 66.8743 23.5995 67.3804 23.4847C67.8865 23.3699 68.4154 23.4101 68.8983 23.6001C69.3812 23.7902 69.7957 24.1212 70.0878 24.5501C70.3799 24.979 70.5362 25.4859 70.5362 26.0048C70.5519 26.3326 70.5019 26.6603 70.389 26.9685C70.2762 27.2767 70.1028 27.5593 69.8792 27.7994C69.6555 28.0396 69.386 28.2327 69.0866 28.3671C68.7872 28.5016 68.4639 28.5749 68.1358 28.5825ZM58.8224 21.7517C57.9819 21.7549 57.1612 22.007 56.4638 22.4763C55.7665 22.9455 55.2239 23.6109 54.9044 24.3884C54.585 25.1658 54.503 26.0205 54.6689 26.8444C54.8349 27.6684 55.2412 28.4248 55.8367 29.018C56.4321 29.6112 57.19 30.0147 58.0146 30.1775C58.8392 30.3403 59.6936 30.2551 60.4698 29.9327C61.246 29.6103 61.9093 29.0652 62.376 28.3661C62.8426 27.667 63.0916 26.8453 63.0916 26.0048C63.0999 25.4426 62.995 24.8845 62.7831 24.3637C62.5713 23.8429 62.2569 23.3701 61.8586 22.9733C61.4603 22.5765 60.9862 22.2638 60.4646 22.054C59.943 21.8441 59.3845 21.7413 58.8224 21.7517ZM58.8224 28.5825C58.3048 28.6194 57.788 28.4996 57.3394 28.2387C56.8909 27.9778 56.5312 27.5879 56.3073 27.1198C56.0834 26.6516 56.0057 26.1269 56.0842 25.6139C56.1627 25.101 56.3938 24.6235 56.7474 24.2438C57.1011 23.864 57.5609 23.5995 58.067 23.4847C58.573 23.3699 59.102 23.4101 59.5849 23.6001C60.0678 23.7902 60.4823 24.1212 60.7744 24.5501C61.0665 24.979 61.2228 25.4859 61.2228 26.0048C61.2385 26.3326 61.1885 26.6603 61.0757 26.9685C60.9628 27.2767 60.7895 27.5593 60.5658 27.7995C60.3421 28.0397 60.0726 28.2327 59.7732 28.3672C59.4738 28.5016 59.1505 28.5749 58.8224 28.5825ZM47.7436 23.0567V24.861H52.0613C51.999 25.7073 51.6527 26.5078 51.0785 27.1326C50.6458 27.5736 50.1255 27.9191 49.5511 28.1466C48.9767 28.3741 48.3609 28.4787 47.7436 28.4536C46.4816 28.4365 45.277 27.9232 44.3906 27.0247C43.5042 26.1262 43.0073 24.9148 43.0073 23.6527C43.0073 22.3906 43.5042 21.1792 44.3906 20.2807C45.277 19.3822 46.4816 18.8689 47.7436 18.8518C48.9558 18.836 50.1253 19.2991 50.998 20.1406L52.2707 18.8679C51.6753 18.2784 50.9681 17.8137 50.1907 17.5011C49.4134 17.1885 48.5814 17.0343 47.7436 17.0474C46.8681 17.0347 45.9988 17.1961 45.1862 17.5223C44.3737 17.8485 43.6341 18.3331 43.0104 18.9477C42.3868 19.5623 41.8916 20.2948 41.5535 21.1025C41.2155 21.9102 41.0414 22.7771 41.0414 23.6527C41.0414 24.5283 41.2155 25.3952 41.5535 26.2029C41.8916 27.0106 42.3868 27.7431 43.0104 28.3577C43.6341 28.9724 44.3737 29.4569 45.1862 29.7831C45.9988 30.1093 46.8681 30.2708 47.7436 30.258C48.5991 30.2935 49.4523 30.1466 50.2467 29.8272C51.0411 29.5078 51.7584 29.0231 52.3512 28.4053C53.4036 27.2566 53.9646 25.7415 53.914 24.1844C53.9181 23.8063 53.8857 23.4286 53.8172 23.0567H47.7436ZM93.0519 24.4582C92.7963 23.6878 92.3097 23.0148 91.6583 22.5306C91.0069 22.0464 90.2223 21.7744 89.4109 21.7517C88.8644 21.7551 88.3243 21.8693 87.8232 22.0873C87.3222 22.3053 86.8705 22.6227 86.4955 23.0203C86.1206 23.4178 85.8301 23.8873 85.6417 24.4002C85.4534 24.9132 85.371 25.4591 85.3995 26.0048C85.3872 26.564 85.4877 27.1199 85.6951 27.6394C85.9024 28.1588 86.2123 28.6312 86.6063 29.0282C87.0003 29.4252 87.4703 29.7387 87.9881 29.95C88.506 30.1613 89.0611 30.2661 89.6204 30.258C90.3211 30.2619 91.0117 30.0917 91.6303 29.7627C92.2489 29.4337 92.7761 28.9562 93.1646 28.3731L91.7147 27.4065C91.4975 27.7672 91.1902 28.0653 90.8231 28.2715C90.4559 28.4776 90.0415 28.5848 89.6204 28.5825C89.1871 28.5991 88.7588 28.4851 88.3911 28.2553C88.0234 28.0254 87.7332 27.6904 87.5582 27.2937L93.2453 24.9416L93.0519 24.4582ZM87.2522 25.876C87.2322 25.5664 87.2741 25.256 87.3755 24.9628C87.4769 24.6697 87.6357 24.3997 87.8428 24.1687C88.0498 23.9376 88.3008 23.7502 88.5811 23.6174C88.8614 23.4845 89.1654 23.4089 89.4753 23.395C89.798 23.3738 90.1198 23.448 90.4006 23.6084C90.6813 23.7689 90.9087 24.0084 91.0542 24.2972L87.2522 25.876ZM82.6284 30.0002H84.4972V17.4986H82.6284V30.0002ZM79.5674 22.7022H79.503C79.2189 22.3935 78.8721 22.149 78.486 21.9851C78.0998 21.8212 77.683 21.7416 77.2636 21.7517C76.1669 21.7984 75.1306 22.2669 74.3711 23.0594C73.6116 23.8519 73.1876 24.9072 73.1876 26.0049C73.1876 27.1025 73.6116 28.1578 74.3711 28.9503C75.1306 29.7428 76.1669 30.2113 77.2636 30.258C77.6847 30.2692 78.1031 30.1885 78.4899 30.0216C78.8766 29.8547 79.2223 29.6055 79.503 29.2914H79.5674V29.9036C79.5674 31.5308 78.6975 32.4007 77.2958 32.4007C76.8287 32.3895 76.3754 32.2395 75.9939 31.9698C75.6123 31.7001 75.3196 31.3229 75.1532 30.8863L73.526 31.563C73.8327 32.3097 74.3553 32.9478 75.027 33.3955C75.6986 33.8433 76.4886 34.0803 77.2958 34.0762C79.4869 34.0762 81.3396 32.7874 81.3396 29.6458V22.0094H79.5674V22.7022ZM77.4248 28.5825C76.7789 28.5277 76.177 28.2324 75.7384 27.7551C75.2999 27.2777 75.0565 26.6531 75.0565 26.0049C75.0565 25.3566 75.2999 24.732 75.7384 24.2546C76.177 23.7773 76.7789 23.482 77.4248 23.4272C77.7462 23.4429 78.0611 23.5231 78.3508 23.6631C78.6404 23.8031 78.899 24 79.111 24.242C79.3229 24.4841 79.484 24.7663 79.5846 25.0719C79.6851 25.3776 79.7231 25.7003 79.6963 26.0209C79.7214 26.3395 79.682 26.66 79.5805 26.963C79.4789 27.2661 79.3173 27.5455 79.1052 27.7847C78.8931 28.0238 78.635 28.2177 78.3463 28.3548C78.0576 28.4919 77.7442 28.5693 77.4248 28.5825ZM101.806 17.4988H97.3346V30.0002H99.2003V25.2638H101.806C102.334 25.2927 102.862 25.2138 103.358 25.0317C103.854 24.8497 104.308 24.5684 104.692 24.205C105.076 23.8417 105.381 23.4038 105.59 22.9184C105.799 22.4329 105.907 21.9099 105.907 21.3813C105.907 20.8528 105.799 20.3298 105.59 19.8443C105.381 19.3588 105.076 18.921 104.692 18.5576C104.308 18.1942 103.854 17.9129 103.358 17.7309C102.862 17.5488 102.334 17.4699 101.806 17.4988ZM101.854 23.524H99.2003V19.2387H101.854C102.139 19.2328 102.423 19.2839 102.688 19.3889C102.953 19.4939 103.194 19.6508 103.398 19.8503C103.602 20.0499 103.764 20.2881 103.874 20.551C103.985 20.8139 104.042 21.0962 104.042 21.3814C104.042 21.6665 103.985 21.9488 103.874 22.2117C103.764 22.4746 103.602 22.7128 103.398 22.9124C103.194 23.1119 102.953 23.2688 102.688 23.3738C102.423 23.4789 102.139 23.5299 101.854 23.524ZM113.386 21.7287C112.705 21.6889 112.027 21.8489 111.435 22.1889C110.844 22.5288 110.365 23.0341 110.056 23.6426L111.713 24.3342C111.877 24.0322 112.126 23.7846 112.429 23.6218C112.732 23.4589 113.075 23.3879 113.418 23.4174C113.891 23.3712 114.363 23.5145 114.731 23.816C115.099 24.1175 115.332 24.5525 115.38 25.0257V25.1544C114.781 24.8361 114.112 24.6704 113.434 24.6719C111.649 24.6719 109.831 25.653 109.831 27.4865C109.849 27.8729 109.943 28.2519 110.11 28.601C110.277 28.9501 110.512 29.2621 110.801 29.5186C111.091 29.7751 111.429 29.9709 111.795 30.0942C112.162 30.2176 112.55 30.266 112.935 30.2367C113.405 30.2644 113.874 30.1656 114.292 29.9506C114.711 29.7356 115.064 29.4123 115.316 29.0144H115.38V29.9794H117.181V25.1866C117.181 22.9671 115.525 21.7287 113.386 21.7287ZM113.161 28.5801C112.549 28.5801 111.697 28.2746 111.697 27.5186C111.697 26.5537 112.758 26.1837 113.675 26.1837C114.271 26.1678 114.859 26.3123 115.38 26.6019C115.311 27.1441 115.049 27.6432 114.641 28.0069C114.233 28.3705 113.707 28.5742 113.161 28.5801ZM123.743 22.0021L121.604 27.4221H121.54L119.32 22.0021H117.31L120.639 29.5773L118.741 33.7911H120.687L125.818 22.0021H123.743ZM106.936 30.0002H108.802V17.4988H106.936V30.0002Z" fill="white"/>
<path d="M10.4353 7.53818C10.1074 7.93025 9.94182 8.43287 9.97251 8.94308V31.0592C9.94173 31.5694 10.1073 32.072 10.4353 32.4641L10.5093 32.5362L22.8983 20.1473V19.855L10.5093 7.46558L10.4353 7.53818Z" fill="url(#paint0_linear_2_188)"/>
<path d="M27.0277 24.2787L22.8983 20.1473V19.855L27.0287 15.7246L27.1218 15.7777L32.0146 18.5578C33.4122 19.3518 33.4122 20.651 32.0146 21.4455L27.1218 24.2256L27.0277 24.2787Z" fill="url(#paint1_linear_2_188)"/>
<path d="M27.1218 24.2251L22.8983 20.0012L10.4353 32.4641C10.7201 32.7153 11.0837 32.8589 11.4633 32.8701C11.8428 32.8813 12.2143 32.7594 12.5134 32.5255L27.1218 24.2251Z" fill="url(#paint2_linear_2_188)"/>
<path d="M27.1218 15.7771L12.5134 7.47666C12.2143 7.24275 11.8428 7.12084 11.4633 7.13206C11.0837 7.14327 10.7201 7.2869 10.4353 7.53806L22.8983 20.0011L27.1218 15.7771Z" fill="url(#paint3_linear_2_188)"/>
<path opacity="0.2" d="M27.0287 24.1321L12.5134 32.3794C12.2258 32.5983 11.8748 32.7178 11.5134 32.7197C11.152 32.7216 10.7997 32.6059 10.5098 32.3901L10.4353 32.4646L10.5093 32.5367L10.5098 32.5362C10.7997 32.7521 11.1519 32.8679 11.5134 32.866C11.8749 32.864 12.2259 32.7445 12.5134 32.5255L27.1218 24.2251L27.0287 24.1321Z" fill="black"/>
<path opacity="0.12" d="M10.4353 32.3185C10.1074 31.9264 9.94186 31.4238 9.97251 30.9136V31.0597C9.94184 31.5699 10.1074 32.0725 10.4353 32.4646L10.5098 32.3901L10.4353 32.3185Z" fill="black"/>
<path opacity="0.12" d="M32.0146 21.2988L27.0287 24.132L27.1218 24.225L32.0146 21.4449C32.3024 21.32 32.5515 21.1202 32.7358 20.8663C32.9202 20.6125 33.0331 20.3138 33.0629 20.0015C33.001 20.2843 32.8741 20.5488 32.6921 20.774C32.5101 20.9992 32.2781 21.1789 32.0146 21.2988Z" fill="black"/>
<path opacity="0.25" d="M12.5134 7.62334L32.0146 18.7033C32.2783 18.8232 32.5103 19.0029 32.6923 19.2282C32.8743 19.4535 33.0012 19.7182 33.0629 20.0011C33.0334 19.6887 32.9205 19.3899 32.7361 19.1359C32.5517 18.8819 32.3026 18.6821 32.0146 18.5572L12.5134 7.47724C11.1158 6.68314 9.9725 7.34274 9.9725 8.94354V9.08964C9.9725 7.48894 11.1158 6.82934 12.5134 7.62334Z" fill="white"/>
<defs>
<linearGradient id="paint0_linear_2_188" x1="21.7996" y1="8.70989" x2="5.01724" y2="25.4923" gradientUnits="userSpaceOnUse">
<stop stop-color="#00A0FF"/>
<stop offset="0.00657" stop-color="#00A1FF"/>
<stop offset="0.2601" stop-color="#00BEFF"/>
<stop offset="0.5122" stop-color="#00D2FF"/>
<stop offset="0.7604" stop-color="#00DFFF"/>
<stop offset="1" stop-color="#00E3FF"/>
</linearGradient>
<linearGradient id="paint1_linear_2_188" x1="33.8343" y1="20.0017" x2="9.6374" y2="20.0017" gradientUnits="userSpaceOnUse">
<stop stop-color="#FFE000"/>
<stop offset="0.4087" stop-color="#FFBD00"/>
<stop offset="0.7754" stop-color="#FFA500"/>
<stop offset="1" stop-color="#FF9C00"/>
</linearGradient>
<linearGradient id="paint2_linear_2_188" x1="24.8269" y1="22.2963" x2="2.06857" y2="45.0546" gradientUnits="userSpaceOnUse">
<stop stop-color="#FF3A44"/>
<stop offset="1" stop-color="#C31162"/>
</linearGradient>
<linearGradient id="paint3_linear_2_188" x1="7.29723" y1="0.176237" x2="17.4598" y2="10.3388" gradientUnits="userSpaceOnUse">
<stop stop-color="#32A071"/>
<stop offset="0.0685" stop-color="#2DA771"/>
<stop offset="0.4762" stop-color="#15CF74"/>
<stop offset="0.8009" stop-color="#06E775"/>
<stop offset="1" stop-color="#00F076"/>
</linearGradient>
</defs>
</svg>

<svg xmlns="http://www.w3.org/2000/svg" fill="none" viewBox="0 0 135 40">
  <path fill="#000" d="M130 0H5a5 5 0 0 0-5 5v30a5 5 0 0 0 5 5h125a5 5 0 0 0 5-5V5a5 5 0 0 0-5-5Z"/>
  <path fill="#A6A6A6" d="M130 .8a4.202 4.202 0 0 1 4.2 4.2v30a4.202 4.202 0 0 1-4.2 4.2H5A4.205 4.205 0 0 1 .8 35V5A4.205 4.205 0 0 1 5 .8h125Zm0-.8H5a5.015 5.015 0 0 0-5 5v30a5.015 5.015 0 0 0 5 5h125a5.014 5.014 0 0 0 5-5V5a5.015 5.015 0 0 0-5-5Z"/>
  <path fill="#fff" stroke="#fff" stroke-miterlimit="10" stroke-width=".2" d="M47.418 10.243a2.707 2.707 0 0 1-.745 2.003 2.909 2.909 0 0 1-2.204.888A3.09 3.09 0 0 1 41.352 10a3.092 3.092 0 0 1 3.117-3.134c.423-.001.843.084 1.232.251.36.147.682.376.938.67l-.527.529a2.026 2.026 0 0 0-1.643-.712A2.32 2.32 0 0 0 42.14 10a2.36 2.36 0 0 0 4.006 1.727 1.89 1.89 0 0 0 .503-1.216H44.47v-.72h2.907c.028.149.042.3.042.452Zm4.61-2.506h-2.733V9.64h2.464v.72h-2.464v1.903h2.733V13h-3.503V7h3.503v.737ZM55.279 13h-.772V7.737h-1.676V7h4.123v.737H55.28V13Zm4.659 0V7h.77v6h-.77Zm4.19 0h-.771V7.737H61.68V7h4.123v.737h-1.676V13Zm9.482-.775a3.115 3.115 0 0 1-4.4 0A3.068 3.068 0 0 1 68.326 10a3.068 3.068 0 0 1 .884-2.225 3.105 3.105 0 0 1 4.395.004A3.068 3.068 0 0 1 74.493 10a3.072 3.072 0 0 1-.884 2.225Zm-3.83-.503a2.307 2.307 0 0 0 3.259 0A2.347 2.347 0 0 0 73.706 10a2.349 2.349 0 0 0-.667-1.722 2.307 2.307 0 0 0-3.26 0A2.35 2.35 0 0 0 69.113 10a2.35 2.35 0 0 0 .666 1.722ZM75.575 13V7h.939l2.916 4.668h.033l-.033-1.157V7h.771v6h-.805l-3.05-4.894h-.034l.034 1.157V13h-.77Z"/>
  <path fill="#fff" d="M68.136 21.752a4.253 4.253 0 1 0 4.27 4.253 4.19 4.19 0 0 0-4.27-4.253Zm0 6.83a2.584 2.584 0 1 1 2.4-2.577 2.46 2.46 0 0 1-2.4 2.578Zm-9.314-6.83a4.254 4.254 0 1 0 4.27 4.253 4.19 4.19 0 0 0-4.27-4.253Zm0 6.83a2.584 2.584 0 1 1 2.4-2.577 2.461 2.461 0 0 1-2.4 2.578Zm-11.078-5.525v1.804h4.317a3.766 3.766 0 0 1-.983 2.272 4.42 4.42 0 0 1-3.334 1.32 4.801 4.801 0 0 1 0-9.601 4.602 4.602 0 0 1 3.254 1.289l1.273-1.273a6.294 6.294 0 0 0-4.527-1.82 6.608 6.608 0 0 0-6.19 9.155 6.608 6.608 0 0 0 6.19 4.055 6.039 6.039 0 0 0 4.607-1.853 5.962 5.962 0 0 0 1.563-4.22 5.874 5.874 0 0 0-.097-1.128h-6.073Zm45.308 1.401a3.953 3.953 0 0 0-3.641-2.706 4.043 4.043 0 0 0-4.011 4.253 4.162 4.162 0 0 0 4.22 4.253 4.23 4.23 0 0 0 3.545-1.885l-1.45-.966a2.43 2.43 0 0 1-2.095 1.175 2.163 2.163 0 0 1-2.062-1.288l5.687-2.352-.193-.484Zm-5.8 1.418a2.333 2.333 0 0 1 2.223-2.481 1.648 1.648 0 0 1 1.58.902l-3.803 1.579ZM82.628 30h1.87V17.5h-1.87V30Zm-3.06-7.298h-.065a2.947 2.947 0 0 0-2.24-.95 4.257 4.257 0 0 0 0 8.506 2.9 2.9 0 0 0 2.24-.967h.064v.613c0 1.627-.87 2.497-2.271 2.497a2.353 2.353 0 0 1-2.143-1.515l-1.627.677a4.052 4.052 0 0 0 3.77 2.513c2.19 0 4.044-1.289 4.044-4.43v-7.637h-1.773v.693Zm-2.143 5.88a2.587 2.587 0 0 1 0-5.155 2.397 2.397 0 0 1 2.271 2.594 2.378 2.378 0 0 1-2.271 2.561ZM101.806 17.5h-4.471V30H99.2v-4.736h2.606a3.886 3.886 0 0 0 3.784-5.42 3.886 3.886 0 0 0-3.784-2.345Zm.048 6.025H99.2V19.24h2.654a2.145 2.145 0 0 1 2.188 2.142 2.134 2.134 0 0 1-.644 1.531 2.146 2.146 0 0 1-1.544.612Zm11.532-1.795a3.507 3.507 0 0 0-3.33 1.914l1.657.691a1.766 1.766 0 0 1 1.705-.917 1.796 1.796 0 0 1 1.962 1.609v.128a4.13 4.13 0 0 0-1.946-.482c-1.785 0-3.603.981-3.603 2.814a2.893 2.893 0 0 0 1.964 2.608 2.89 2.89 0 0 0 1.14.143 2.63 2.63 0 0 0 2.381-1.223h.064v.965h1.801v-4.792c0-2.22-1.656-3.458-3.795-3.458Zm-.225 6.851c-.612 0-1.464-.305-1.464-1.061 0-.965 1.061-1.335 1.978-1.335a3.325 3.325 0 0 1 1.705.418 2.264 2.264 0 0 1-2.219 1.978Zm10.582-6.578-2.139 5.42h-.064l-2.22-5.42h-2.01l3.329 7.575-1.898 4.214h1.946l5.131-11.789h-2.075ZM106.936 30h1.866V17.5h-1.866V30Z"/>
  <path fill="url(#a)" d="M10.435 7.538a2.002 2.002 0 0 0-.462 1.405V31.06a2 2 0 0 0 .462 1.405l.074.072L22.9 20.147v-.292L10.51 7.465l-.074.073Z"/>
  <path fill="url(#b)" d="m27.028 24.279-4.13-4.132v-.292l4.13-4.13.094.053 4.893 2.78c1.397.794 1.397 2.093 0 2.887l-4.893 2.78-.094.054Z"/>
  <path fill="url(#c)" d="m27.122 24.225-4.224-4.224-12.463 12.463a1.626 1.626 0 0 0 2.078.062l14.609-8.3Z"/>
  <path fill="url(#d)" d="m27.122 15.777-14.609-8.3a1.627 1.627 0 0 0-2.078.061l12.463 12.463 4.224-4.224Z"/>
  <path fill="#000" d="M27.029 24.132 12.513 32.38a1.666 1.666 0 0 1-2.003.011l-.075.075.074.072a1.666 1.666 0 0 0 2.004-.011l14.609-8.3-.093-.094Z" opacity=".2"/>
  <path fill="#000" d="M10.435 32.319a2.003 2.003 0 0 1-.462-1.405v.146c-.031.51.134 1.012.462 1.405l.075-.075-.075-.072Zm21.58-11.02-4.986 2.833.093.093 4.893-2.78A1.754 1.754 0 0 0 33.063 20a1.862 1.862 0 0 1-1.048 1.298Z" opacity=".12"/>
  <path fill="#fff" d="m12.513 7.623 19.502 11.08a1.862 1.862 0 0 1 1.048 1.298 1.753 1.753 0 0 0-1.048-1.444L12.513 7.477c-1.397-.794-2.54-.134-2.54 1.467v.146c0-1.601 1.143-2.26 2.54-1.467Z" opacity=".25"/>
  <defs>
    <linearGradient id="a" x1="21.8" x2="5.017" y1="8.71" y2="25.492" gradientUnits="userSpaceOnUse">
      <stop stop-color="#00A0FF"/>
      <stop offset=".007" stop-color="#00A1FF"/>
      <stop offset=".26" stop-color="#00BEFF"/>
      <stop offset=".512" stop-color="#00D2FF"/>
      <stop offset=".76" stop-color="#00DFFF"/>
      <stop offset="1" stop-color="#00E3FF"/>
    </linearGradient>
    <linearGradient id="b" x1="33.834" x2="9.637" y1="20.002" y2="20.002" gradientUnits="userSpaceOnUse">
      <stop stop-color="#FFE000"/>
      <stop offset=".409" stop-color="#FFBD00"/>
      <stop offset=".775" stop-color="orange"/>
      <stop offset="1" stop-color="#FF9C00"/>
    </linearGradient>
    <linearGradient id="c" x1="24.827" x2="2.069" y1="22.296" y2="45.055" gradientUnits="userSpaceOnUse">
      <stop stop-color="#FF3A44"/>
      <stop offset="1" stop-color="#C31162"/>
    </linearGradient>
    <linearGradient id="d" x1="7.297" x2="17.46" y1=".176" y2="10.339" gradientUnits="userSpaceOnUse">
      <stop stop-color="#32A071"/>
      <stop offset=".069" stop-color="#2DA771"/>
      <stop offset=".476" stop-color="#15CF74"/>
      <stop offset=".801" stop-color="#06E775"/>
      <stop offset="1" stop-color="#00F076"/>
    </linearGradient>
  </defs>
</svg>
